**kern	**silbe	**kern	**silbe	**harmony	**phrase	**leadinstrument	**rhyme	**timestamp	**harte
*ICvox	*	*ICvox	*	*M4/4	*	*	*	*	*M4/4
*VRlead	*	*VRharmonize	*	*	*	*	*	*	*
*Hstimme	*	*Nstimme	*	*	*	*	*	*	*
*A:	*	*A:	*	*A:	*	*	*	*	*A:
*M4/4	*	*M4/4	*	*	*	*	*	*	*
*clefG2	*	*clefG2	*	*	*	*	*	*	*
r;	.	r;	.	1r;	.	r	.	0	N.C.
=1	=1	=1	=1	=1	=1	=1	=1	=1	=1
*>Letter>A	*>Letter>A	*>Letter>A	*>Letter>A	*>Letter>A	*>Letter>A	*>Letter>A	*>Letter>A	*>Letter>A	*>Letter>A
*>Label>Intro	*>Label>Intro	*>Label>Intro	*>Label>Intro	*>Label>Intro	*>Label>Intro	*>Label>Intro	*>Label>Intro	*>Label>Intro	*>Label>Intro
2..r	.	4f#	Help!	1Bm	newline	voice	.	1.068	B:min
.	.	4r	.	.	.	.	.	.	.
.	.	2r	.	.	.	.	.	.	.
8e	I	.	.	.	.	.	.	.	.
=2	=2	=2	=2	=2	=2	=2	=2	=2	=2
4f#	need	1r	.	2Bm	.	voice	.	2.349	B:min
8d	some-	.	.	.	.	.	.	.	.
8d	-bo-	.	.	.	.	.	.	.	.
4e	_	.	.	2Bm	.	voice	.	2.989	B:min/b7
4d	-dy	.	.	.	.	.	.	.	.
=3	=3	=3	=3	=3	=3	=3	=3	=3	=3
2r	.	4g	Help!	1GM	.	voice	.	3.629	G:maj
.	.	4r	.	.	.	.	.	.	.
6r	.	2r	.	.	.	.	.	.	.
6B	not	.	.	.	.	.	.	.	.
6d	just	.	.	.	.	.	.	.	.
=4	=4	=4	=4	=4	=4	=4	=4	=4	=4
8f#	a-	1r	.	2GM	.	voice	.	4.91	G:maj
4e	-ny	.	.	.	.	.	.	.	.
4.e	bo-	.	.	.	.	.	.	.	.
.	.	.	.	2GM	.	voice	.	5.55	G:maj/7
8d	_	.	.	.	.	.	.	.	.
8B	-dy	.	.	.	.	.	.	.	.
=5	=5	=5	=5	=5	=5	=5	=5	=5	=5
2r	.	4g#	Help!	1EM	newline	voice	.	6.19	E:maj
.	.	4r	.	.	.	.	.	.	.
8r	.	2r	.	.	.	.	.	.	.
8B	You	.	.	.	.	.	.	.	.
8d	know	.	.	.	.	.	.	.	.
8B	I	.	.	.	.	.	.	.	.
=6	=6	=6	=6	=6	=6	=6	=6	=6	=6
4f#	need	1r	.	1EM	.	voice	.	7.447	E:maj
8d	some-	.	.	.	.	.	.	.	.
4.e	-one	.	.	.	.	.	.	.	.
4r	.	.	.	.	.	.	.	.	.
=7	=7	=7	=7	=7	=7	=7	=7	=7	=7
1r	.	4.cc#	Help!	2AM	.	voice	.	8.705	A:maj
.	.	8b	_	.	.	.	.	.	.
.	.	4a	_	2AMm	.	voice	.	9.333	A:7
.	.	4r	.	.	.	.	.	.	.
=8	=8	=8	=8	=8	=8	=8	=8	=8	=8
1r	.	1r	.	2AM	.	voice	.	9.962	A:maj6
.	.	.	.	2AM	.	voice	.	10.591	A:maj
=9	=9	=9	=9	=9	=9	=9	=9	=9	=9
*>Letter>B	*>Letter>B	*>Letter>B	*>Letter>B	*>Letter>B	*>Letter>B	*>Letter>B	*>Letter>B	*>Letter>B	*>Letter>B
*>Label>Verse	*>Label>Verse	*>Label>Verse	*>Label>Verse	*>Label>Verse	*>Label>Verse	*>Label>Verse	*>Label>Verse	*>Label>Verse	*>Label>Verse
4r	.	1r	.	1AM	newline	voice	.	11.22	A:maj
8c#	When	.	.	.	.	.	.	.	.
4.c#	I	.	.	.	.	.	.	.	.
4c#	was	.	.	.	.	.	.	.	.
=10	=10	=10	=10	=10	=10	=10	=10	=10	=10
4c#	young-	1r	.	1AM	.	voice	.	12.476	A:maj
8c#	-er	.	.	.	.	.	.	.	.
4c#	so	.	.	.	.	.	.	.	.
4.c#	much	.	.	.	.	.	.	.	.
=11	=11	=11	=11	=11	=11	=11	=11	=11	=11
4c#	young-	1r	.	1C#m	.	voice	.	13.733	C#:min
8c#	-er	.	.	.	.	.	.	.	.
4c#	than	.	.	.	.	.	.	.	.
4e	to-	.	.	.	.	.	.	.	.
[8c#	day	.	.	.	.	.	A	.	.
=12	=12	=12	=12	=12	=12	=12	=12	=12	=12
2c#]	_	1r	.	1C#m	.	voice	.	14.99	C#:min
8B	_	.	.	.	.	.	.	.	.
8A	_	.	.	.	.	.	.	.	.
4r	.	.	.	.	.	.	.	.	.
=13	=13	=13	=13	=13	=13	=13	=13	=13	=13
8r	.	1r	.	1F#m	newline	voice	.	16.247	F#:min
8B#	I	.	.	.	.	.	.	.	.
8c#	ne-	.	.	.	.	.	.	.	.
8B#	-ver	.	.	.	.	.	.	.	.
4c#	need-	.	.	.	.	.	.	.	.
8B#	-ed	.	.	.	.	.	.	.	.
8r	.	.	.	.	.	.	.	.	.
=14	=14	=14	=14	=14	=14	=14	=14	=14	=14
8c#	a-	1r	.	1F#m	.	voice	.	17.521	F#:min
4B#	-ny-	.	.	.	.	.	.	.	.
4c#	-bo-	.	.	.	.	.	.	.	.
4.c#	-dy's	.	.	.	.	.	.	.	.
=15	=15	=15	=15	=15	=15	=15	=15	=15	=15
4d	help	1r	.	2DM	.	voice	.	18.794	D:maj
4d	in	.	.	.	.	.	.	.	.
8d	a-	.	.	2GM	.	voice	.	19.431	G:maj
4d	-ny	.	.	.	.	.	.	.	.
[8c#	way	.	.	.	.	.	A	.	.
=16	=16	=16	=16	=16	=16	=16	=16	=16	=16
4c#]	_	1r	.	1AM	.	voice	.	20.068	A:maj
2.r	.	.	.	.	.	.	.	.	.
=17	=17	=17	=17	=17	=17	=17	=17	=17	=17
4r	.	1r	.	1AM	newline	voice	.	21.341	A:maj
4c#	But	.	.	.	.	.	.	.	.
4c#	now	.	.	.	.	.	.	.	.
4c#	those	.	.	.	.	.	.	.	.
=18	=18	=18	=18	=18	=18	=18	=18	=18	=18
4c#	days	1r	.	1AM	.	voice	.	22.599	A:maj
8c#	are	.	.	.	.	.	.	.	.
4c#	gone	.	.	.	.	.	.	.	.
4.c#	I'm	.	.	.	.	.	.	.	.
=19	=19	=19	=19	=19	=19	=19	=19	=19	=19
4c#	not	1r	.	1C#m	.	voice	.	23.856	C#:min
4c#	so	.	.	.	.	.	.	.	.
4c#	self	.	.	.	.	.	.	.	.
4e	a-	.	.	.	.	.	.	.	.
=20	=20	=20	=20	=20	=20	=20	=20	=20	=20
2c#	-ssured	1r	.	1C#m	.	voice	B	25.113	C#:min
8B	_	.	.	.	.	.	.	.	.
8A	_	.	.	.	.	.	.	.	.
4r	.	.	.	.	.	.	.	.	.
=21	=21	=21	=21	=21	=21	=21	=21	=21	=21
4r	.	1r	.	1F#M	newline	voice	.	26.371	F#:maj
8c#	Now	.	.	.	.	.	.	.	.
8B#	I	.	.	.	.	.	.	.	.
4.c#	find	.	.	.	.	.	C	.	.
8B#	I've	.	.	.	.	.	.	.	.
=22	=22	=22	=22	=22	=22	=22	=22	=22	=22
8c#	change	1r	.	1F#M	.	voice	.	27.605	F#:maj
8B#	my	.	.	.	.	.	.	.	.
4c#	mind	.	.	.	.	.	C	.	.
4r	.	.	.	.	.	.	.	.	.
8r	.	.	.	.	.	.	.	.	.
8A	I've	.	.	.	.	.	.	.	.
=23	=23	=23	=23	=23	=23	=23	=23	=23	=23
4d	o-	1r	.	2DM	.	voice	.	28.838	D:maj
4d	-pened	.	.	.	.	.	.	.	.
4d	up	.	.	2GM	.	voice	.	29.455	G:maj
8d	the	.	.	.	.	.	.	.	.
[8c#	doors	.	.	.	.	.	B	.	.
=24	=24	=24	=24	=24	=24	=24	=24	=24	=24
4c#]	_	1r	.	1AM	.	voice	.	30.072	A:maj
2.r	.	.	.	.	.	.	.	.	.
=25	=25	=25	=25	=25	=25	=25	=25	=25	=25
*>Letter>C	*>Letter>C	*>Letter>C	*>Letter>C	*>Letter>C	*>Letter>C	*>Letter>C	*>Letter>C	*>Letter>C	*>Letter>C
*>Label>Chorus	*>Label>Chorus	*>Label>Chorus	*>Label>Chorus	*>Label>Chorus	*>Label>Chorus	*>Label>Chorus	*>Label>Chorus	*>Label>Chorus	*>Label>Chorus
4e	Help	1r	.	1Bm	newline	voice	.	31.306	B:min
4e	me	.	.	.	.	.	D	.	.
8e	if	.	.	.	.	.	.	.	.
4e	you	.	.	.	.	.	.	.	.
8e	can	.	.	.	.	.	.	.	.
=26	=26	=26	=26	=26	=26	=26	=26	=26	=26
4d	_	1r	.	1Bm	.	voice	.	32.559	B:min
4d	I'm	.	.	.	.	.	.	.	.
4c#	feel-	.	.	.	.	.	(D	.	.
4B	-in'	.	.	.	.	.	d)	.	.
=27	=27	=27	=27	=27	=27	=27	=27	=27	=27
2d	down	1r	.	1Bm	.	voice	E	33.812	B:min
8c#	_	.	.	.	.	.	.	.	.
4.B	_	.	.	.	.	.	.	.	.
=28	=28	=28	=28	=28	=28	=28	=28	=28	=28
2r	.	1r	.	2Bm	.	voice	.	35.064	B:min
8c#	And	.	.	2Bm	.	voice	.	35.691	B:min/b7
4d	I	.	.	.	.	.	.	.	.
[8e	do	.	.	.	.	.	.	.	.
=29	=29	=29	=29	=29	=29	=29	=29	=29	=29
4e]	_	1r	.	1GM	newline	voice	.	36.317	G:maj
4e	a-	.	.	.	.	.	.	.	.
4e	-pre-	.	.	.	.	.	(D	.	.
8e	-ci-	.	.	.	.	.	d)	.	.
8e	-ate	.	.	.	.	.	.	.	.
=30	=30	=30	=30	=30	=30	=30	=30	=30	=30
4d	_	1r	.	1GM	.	voice	.	37.581	G:maj
8d	you	.	.	.	.	.	.	.	.
8r	.	.	.	.	.	.	.	.	.
8c#	be-	.	.	.	.	.	(D	.	.
4.B	-in'	.	.	.	.	.	d)	.	.
=31	=31	=31	=31	=31	=31	=31	=31	=31	=31
2d	round	1r	.	1GM	.	voice	E	38.845	G:maj
8c#	_	.	.	.	.	.	.	.	.
4.B	_	.	.	.	.	.	.	.	.
=32	=32	=32	=32	=32	=32	=32	=32	=32	=32
1r	.	1r	.	2GM	.	voice	.	40.108	G:maj
.	.	.	.	2GM	.	voice	.	40.74	G:maj/7
=33	=33	=33	=33	=33	=33	=33	=33	=33	=33
4e	Help	4b	Help	1EM	newline	voice	.	41.372	E:maj
8e	me	8b	me	.	.	.	D	.	.
4e	get	4b	get	.	.	.	.	.	.
4e	my	4b	my	.	.	.	.	.	.
8e	feet	[8b	feet	.	.	.	D	.	.
=34	=34	=34	=34	=34	=34	=34	=34	=34	=34
4d	_	4b]	_	1EM	.	voice	.	42.632	E:maj
4d	back	4a	back	.	.	.	.	.	.
4c#	on	4g#	on	.	.	.	.	.	.
4B	the	4f#	the	.	.	.	.	.	.
=35	=35	=35	=35	=35	=35	=35	=35	=35	=35
2d	ground	2a	ground	1EM	.	voice	E	43.891	E:maj
8c#	_	8g#	_	.	.	.	.	.	.
4.B	_	4.f#	_	.	.	.	.	.	.
=36	=36	=36	=36	=36	=36	=36	=36	=36	=36
2r	.	2r	.	1EM	.	voice	.	45.151	E:maj
4e	Won't	4e	Won't	.	.	.	.	.	.
4e	you	4e	you	.	.	.	.	.	.
=37	=37	=37	=37	=37	=37	=37	=37	=37	=37
1cc#	please	1a	please	1AMm	newline	voice	D	46.411	A:7
=38	=38	=38	=38	=38	=38	=38	=38	=38	=38
8b	please	8e	please	1AMm	.	voice	D	47.679	A:7
4.a	_	4.d	_	.	.	.	.	.	.
8e	help	8c#	help	.	.	.	.	.	.
4.d	_	4.B	_	.	.	.	.	.	.
=39	=39	=39	=39	=39	=39	=39	=39	=39	=39
4c#	me?	4A	me?	1AM	.	voice	D	48.948	A:maj
4r	.	4r	.	.	.	.	.	.	.
2r	.	2r	.	.	.	.	.	.	.
=40	=40	=40	=40	=40	=40	=40	=40	=40	=40
1r	.	1r	.	1AM	.	voice	.	50.216	A:maj
=41	=41	=41	=41	=41	=41	=41	=41	=41	=41
*>Letter>B	*>Letter>B	*>Letter>B	*>Letter>B	*>Letter>B	*>Letter>B	*>Letter>B	*>Letter>B	*>Letter>B	*>Letter>B
*>Label>Verse	*>Label>Verse	*>Label>Verse	*>Label>Verse	*>Label>Verse	*>Label>Verse	*>Label>Verse	*>Label>Verse	*>Label>Verse	*>Label>Verse
4r	.	1r	.	1AM	newline	voice	.	51.485	A:maj
4c#	And	.	.	.	.	.	.	.	.
4c#	now	.	.	.	.	.	.	.	.
4c#	my	.	.	.	.	.	.	.	.
=42	=42	=42	=42	=42	=42	=42	=42	=42	=42
4c#	life	1r	.	1AM	.	voice	.	52.755	A:maj
8c#	has	.	.	.	.	.	.	.	.
4.c#	changed	.	.	.	.	.	.	.	.
4c#	in	.	.	.	.	.	.	.	.
=43	=43	=43	=43	=43	=43	=43	=43	=43	=43
4c#	oh	1r	.	1C#m	.	voice	.	54.025	C#:min
4c#	so	.	.	.	.	.	.	.	.
8c#	ma-	.	.	.	.	.	.	.	.
4e	-ny	.	.	.	.	.	.	.	.
[8c#	ways	.	.	.	.	.	A	.	.
=44	=44	=44	=44	=44	=44	=44	=44	=44	=44
2c#]	_	1r	.	1C#m	.	voice	.	55.296	C#:min
8B	_	.	.	.	.	.	.	.	.
8A	_	.	.	.	.	.	.	.	.
4r	.	.	.	.	.	.	.	.	.
=45	=45	=45	=45	=45	=45	=45	=45	=45	=45
4r	.	1r	.	1F#m	newline	voice	.	56.566	F#:min
4c#	My	.	.	.	.	.	.	.	.
4c#	in-	.	.	.	.	.	.	.	.
4c#	-de-	.	.	.	.	.	.	.	.
=46	=46	=46	=46	=46	=46	=46	=46	=46	=46
4c#	-pen-	1r	.	1F#m	.	voice	.	57.847	F#:min
4c#	-dence	.	.	.	.	.	.	.	.
4c#	seems	.	.	.	.	.	.	.	.
4c#	to	.	.	.	.	.	.	.	.
=47	=47	=47	=47	=47	=47	=47	=47	=47	=47
8d	va-	1r	.	2DM	.	voice	.	59.129	D:maj
4.d	-nish	.	.	.	.	.	.	.	.
4d	in	.	.	2GM	.	voice	.	59.77	G:maj
8d	the	.	.	.	.	.	.	.	.
[8c#	haze	.	.	.	.	.	A	.	.
=48	=48	=48	=48	=48	=48	=48	=48	=48	=48
4c#]	_	1r	.	1AM	.	voice	.	60.41	A:maj
2.r	.	.	.	.	.	.	.	.	.
=49	=49	=49	=49	=49	=49	=49	=49	=49	=49
4r	.	1r	.	1AM	newline	voice	.	61.692	A:maj
8c#	But	.	.	.	.	.	.	.	.
4.c#	e-	.	.	.	.	.	.	.	.
4c#	-very	.	.	.	.	.	.	.	.
=50	=50	=50	=50	=50	=50	=50	=50	=50	=50
4c#	now	1r	.	1AM	.	voice	.	62.951	A:maj
8c#	and	.	.	.	.	.	.	.	.
4c#	then	.	.	.	.	.	.	.	.
4.c#	I	.	.	.	.	.	.	.	.
=51	=51	=51	=51	=51	=51	=51	=51	=51	=51
4c#	feel	1r	.	1C#m	.	voice	.	64.209	C#:min
4c#	so	.	.	.	.	.	.	.	.
4c#	in-	.	.	.	.	.	.	.	.
4e	-se-	.	.	.	.	.	.	.	.
=52	=52	=52	=52	=52	=52	=52	=52	=52	=52
2c#	-cure	1r	.	1C#m	.	voice	B	65.468	C#:min
8B	_	.	.	.	.	.	.	.	.
8A	_	.	.	.	.	.	.	.	.
4r	.	.	.	.	.	.	.	.	.
=53	=53	=53	=53	=53	=53	=53	=53	=53	=53
8r	.	1r	.	1F#m	newline	voice	.	66.727	F#:min
8B#	I	.	.	.	.	.	.	.	.
8c#	know	.	.	.	.	.	.	.	.
8B#	that	.	.	.	.	.	.	.	.
4.c#	I	.	.	.	.	.	.	.	.
8B#	just	.	.	.	.	.	.	.	.
=54	=54	=54	=54	=54	=54	=54	=54	=54	=54
8c#	need	1r	.	1F#m	.	voice	.	67.958	F#:min
8B#	you	.	.	.	.	.	.	.	.
4c#	like	.	.	.	.	.	.	.	.
4.r	.	.	.	.	.	.	.	.	.
8A	I've	.	.	.	.	.	.	.	.
=55	=55	=55	=55	=55	=55	=55	=55	=55	=55
8d	ne-	1r	.	2DM	.	voice	.	69.189	D:maj
4d	-ver	.	.	.	.	.	.	.	.
4d	done	.	.	.	.	.	.	.	.
.	.	.	.	2GM	.	voice	.	69.804	G:maj
4d	be-	.	.	.	.	.	.	.	.
[8c#	-fore	.	.	.	.	.	B	.	.
=56	=56	=56	=56	=56	=56	=56	=56	=56	=56
4c#]	_	1r	.	1AM	.	voice	.	70.419	A:maj
2.r	.	.	.	.	.	.	.	.	.
=57	=57	=57	=57	=57	=57	=57	=57	=57	=57
*>Letter>C	*>Letter>C	*>Letter>C	*>Letter>C	*>Letter>C	*>Letter>C	*>Letter>C	*>Letter>C	*>Letter>C	*>Letter>C
*>Label>Chorus	*>Label>Chorus	*>Label>Chorus	*>Label>Chorus	*>Label>Chorus	*>Label>Chorus	*>Label>Chorus	*>Label>Chorus	*>Label>Chorus	*>Label>Chorus
4e	Help	1r	.	1Bm	newline	voice	.	71.65	B:min
4e	me	.	.	.	.	.	D	.	.
8e	if	.	.	.	.	.	.	.	.
4e	you	.	.	.	.	.	.	.	.
8e	can	.	.	.	.	.	.	.	.
=58	=58	=58	=58	=58	=58	=58	=58	=58	=58
4d	_	1r	.	1Bm	.	voice	.	72.903	B:min
4d	I'm	.	.	.	.	.	.	.	.
4c#	feel-	.	.	.	.	.	(D	.	.
4B	-in'	.	.	.	.	.	d)	.	.
=59	=59	=59	=59	=59	=59	=59	=59	=59	=59
2d	down	1r	.	1Bm	.	voice	E	74.156	B:min
8c#	_	.	.	.	.	.	.	.	.
4.B	_	.	.	.	.	.	.	.	.
=60	=60	=60	=60	=60	=60	=60	=60	=60	=60
2r	.	1r	.	2Bm	.	voice	.	75.409	B:min
8c#	And	.	.	2Bm	.	voice	.	76.035	B:min/b7
4d	I	.	.	.	.	.	.	.	.
[8e	do	.	.	.	.	.	.	.	.
=61	=61	=61	=61	=61	=61	=61	=61	=61	=61
4e]	_	1r	.	1GM	newline	voice	.	76.662	G:maj
4e	a-	.	.	.	.	.	.	.	.
4e	-pre-	.	.	.	.	.	(D	.	.
8e	-ci-	.	.	.	.	.	d)	.	.
8e	-ate	.	.	.	.	.	.	.	.
=62	=62	=62	=62	=62	=62	=62	=62	=62	=62
4d	_	1r	.	1GM	.	voice	.	77.936	G:maj
8d	you	.	.	.	.	.	.	.	.
8r	.	.	.	.	.	.	.	.	.
8c#	be-	.	.	.	.	.	(D	.	.
4.B	-in'	.	.	.	.	.	d)	.	.
=63	=63	=63	=63	=63	=63	=63	=63	=63	=63
2d	round	1r	.	1GM	.	voice	E	79.21	G:maj
8c#	_	.	.	.	.	.	.	.	.
4.B	_	.	.	.	.	.	.	.	.
=64	=64	=64	=64	=64	=64	=64	=64	=64	=64
1r	.	1r	.	2GM	.	voice	.	80.484	G:maj
.	.	.	.	2GM	.	voice	.	81.121	G:maj/7
=65	=65	=65	=65	=65	=65	=65	=65	=65	=65
4e	Help	4b	Help	1EM	newline	voice	.	81.758	E:maj
8e	me	8b	me	.	.	.	D	.	.
4e	get	4b	get	.	.	.	.	.	.
4e	my	4b	my	.	.	.	.	.	.
8e	feet	[8b	feet	.	.	.	D	.	.
=66	=66	=66	=66	=66	=66	=66	=66	=66	=66
4d	_	4b]	_	1EM	.	voice	.	83.04	E:maj
4d	back	4a	back	.	.	.	.	.	.
4c#	on	4g#	on	.	.	.	.	.	.
4B	the	4f#	the	.	.	.	.	.	.
=67	=67	=67	=67	=67	=67	=67	=67	=67	=67
2d	ground	2a	ground	1EM	.	voice	E	84.322	E:maj
8c#	_	8g#	_	.	.	.	.	.	.
4.B	_	4.f#	_	.	.	.	.	.	.
=68	=68	=68	=68	=68	=68	=68	=68	=68	=68
2r	.	2r	.	1EM	.	voice	.	85.604	E:maj
4e	Won't	4e	Won't	.	.	.	.	.	.
4e	you	4e	you	.	.	.	.	.	.
=69	=69	=69	=69	=69	=69	=69	=69	=69	=69
1cc#	please	1a	please	1AMm	newline	voice	D	86.885	A:7
=70	=70	=70	=70	=70	=70	=70	=70	=70	=70
8b	please	8e	please	1AMm	.	voice	D	88.145	A:7
4.a	_	4.d	_	.	.	.	.	.	.
8e	help	8c#	help	.	.	.	.	.	.
4.d	_	4.B	_	.	.	.	.	.	.
=71	=71	=71	=71	=71	=71	=71	=71	=71	=71
4c#	me?	4A	me?	1AM	.	voice	D	89.404	A:maj
4r	.	4r	.	.	.	.	.	.	.
2r	.	2r	.	.	.	.	.	.	.
=72	=72	=72	=72	=72	=72	=72	=72	=72	=72
1r	.	1r	.	1AM	.	voice	.	90.663	A:maj
=73	=73	=73	=73	=73	=73	=73	=73	=73	=73
*>Letter>B	*>Letter>B	*>Letter>B	*>Letter>B	*>Letter>B	*>Letter>B	*>Letter>B	*>Letter>B	*>Letter>B	*>Letter>B
*>Label>Verse	*>Label>Verse	*>Label>Verse	*>Label>Verse	*>Label>Verse	*>Label>Verse	*>Label>Verse	*>Label>Verse	*>Label>Verse	*>Label>Verse
4r	.	1r	.	1AM	newline	voice	.	91.922	A:maj
8c#	When	.	.	.	.	.	.	.	.
4.c#	I	.	.	.	.	.	.	.	.
4c#	was	.	.	.	.	.	.	.	.
=74	=74	=74	=74	=74	=74	=74	=74	=74	=74
4c#	young-	1r	.	1AM	.	voice	.	93.195	A:maj
8c#	-er	.	.	.	.	.	.	.	.
4c#	so	.	.	.	.	.	.	.	.
4.c#	much	.	.	.	.	.	.	.	.
=75	=75	=75	=75	=75	=75	=75	=75	=75	=75
4c#	young-	1r	.	1C#m	.	voice	.	94.467	C#:min
8c#	-er	.	.	.	.	.	.	.	.
4c#	than	.	.	.	.	.	.	.	.
4e	to-	.	.	.	.	.	.	.	.
[8c#	day	.	.	.	.	.	A	.	.
=76	=76	=76	=76	=76	=76	=76	=76	=76	=76
2c#]	_	1r	.	1C#m	.	voice	.	95.739	C#:min
8B	_	.	.	.	.	.	.	.	.
8A	_	.	.	.	.	.	.	.	.
4r	.	.	.	.	.	.	.	.	.
=77	=77	=77	=77	=77	=77	=77	=77	=77	=77
8r	.	1r	.	1F#m	newline	voice	.	97.012	F#:min
8B#	I	.	.	.	.	.	.	.	.
8c#	ne-	.	.	.	.	.	.	.	.
8B#	-ver	.	.	.	.	.	.	.	.
4c#	need-	.	.	.	.	.	.	.	.
4B#	-ed	.	.	.	.	.	.	.	.
=78	=78	=78	=78	=78	=78	=78	=78	=78	=78
8c#	a-	1r	.	1F#m	.	voice	.	98.278	F#:min
4B#	-ny-	.	.	.	.	.	.	.	.
4c#	-bo-	.	.	.	.	.	.	.	.
4.c#	-dy's	.	.	.	.	.	.	.	.
=79	=79	=79	=79	=79	=79	=79	=79	=79	=79
4d	help	1r	.	2DM	.	voice	.	99.545	D:maj
4d	in	.	.	.	.	.	.	.	.
8d	a-	.	.	2GM	.	voice	.	100.178	G:maj
4d	-ny	.	.	.	.	.	.	.	.
[8c#	way	.	.	.	.	.	A	.	.
=80	=80	=80	=80	=80	=80	=80	=80	=80	=80
4c#]	_	1r	.	1AM	.	voice	.	100.811	A:maj
2.r	.	.	.	.	.	.	.	.	.
=81	=81	=81	=81	=81	=81	=81	=81	=81	=81
4r	.	1r	.	1AM	newline	voice	.	102.078	A:maj
4c#	But	.	.	.	.	.	.	.	.
4c#	now	.	.	.	.	.	.	.	.
4c#	those	.	.	.	.	.	.	.	.
=82	=82	=82	=82	=82	=82	=82	=82	=82	=82
4c#	days	1r	.	1AM	.	voice	.	103.367	A:maj
8c#	are	.	.	.	.	.	.	.	.
4c#	gone	.	.	.	.	.	.	.	.
4c#	I'm	.	.	.	.	.	.	.	.
8B#	_	.	.	.	.	.	.	.	.
=83	=83	=83	=83	=83	=83	=83	=83	=83	=83
4c#	not	1r	.	1C#m	.	voice	.	104.657	C#:min
4c#	so	.	.	.	.	.	.	.	.
4c#	self	.	.	.	.	.	.	.	.
4e	a-	.	.	.	.	.	.	.	.
=84	=84	=84	=84	=84	=84	=84	=84	=84	=84
2c#	-ssured	1r	.	1C#m	.	voice	B	105.946	C#:min
8B	_	.	.	.	.	.	.	.	.
8A	_	.	.	.	.	.	.	.	.
4r	.	.	.	.	.	.	.	.	.
=85	=85	=85	=85	=85	=85	=85	=85	=85	=85
4r	.	1r	.	1F#m	newline	voice	.	107.236	F#:min
8c#	Now	.	.	.	.	.	.	.	.
8B#	I	.	.	.	.	.	.	.	.
4.c#	find	.	.	.	.	.	C	.	.
8B#	I've	.	.	.	.	.	.	.	.
=86	=86	=86	=86	=86	=86	=86	=86	=86	=86
4c#	change	1r	.	1F#m	.	voice	.	108.5	F#:min
8B#	my	.	.	.	.	.	.	.	.
4.c#	mind	.	.	.	.	.	C	.	.
8r	.	.	.	.	.	.	.	.	.
8A	I've	.	.	.	.	.	.	.	.
=87	=87	=87	=87	=87	=87	=87	=87	=87	=87
4d	o-	1r	.	2DM	.	voice	.	109.763	D:maj
4d	-pened	.	.	.	.	.	.	.	.
4d	up	.	.	2GM	.	voice	.	110.395	G:maj
8d	the	.	.	.	.	.	.	.	.
[8c#	doors	.	.	.	.	.	B	.	.
=88	=88	=88	=88	=88	=88	=88	=88	=88	=88
4c#]	_	1r	.	1AM	.	voice	.	111.027	A:maj
2.r	.	.	.	.	.	.	.	.	.
=89	=89	=89	=89	=89	=89	=89	=89	=89	=89
*>Letter>C2	*>Letter>C2	*>Letter>C2	*>Letter>C2	*>Letter>C2	*>Letter>C2	*>Letter>C2	*>Letter>C2	*>Letter>C2	*>Letter>C2
*>Label>Chorus	*>Label>Chorus	*>Label>Chorus	*>Label>Chorus	*>Label>Chorus	*>Label>Chorus	*>Label>Chorus	*>Label>Chorus	*>Label>Chorus	*>Label>Chorus
4e	Help	1r	.	1Bm	newline	voice	.	112.29	B:min
4e	me	.	.	.	.	.	D	.	.
8e	if	.	.	.	.	.	.	.	.
4e	you	.	.	.	.	.	.	.	.
8e	can	.	.	.	.	.	.	.	.
=90	=90	=90	=90	=90	=90	=90	=90	=90	=90
4d	_	1r	.	1Bm	.	voice	.	113.548	B:min
4d	I'm	.	.	.	.	.	.	.	.
4c#	feel-	.	.	.	.	.	(D	.	.
4B	-in'	.	.	.	.	.	d)	.	.
=91	=91	=91	=91	=91	=91	=91	=91	=91	=91
2d	down	1r	.	1Bm	.	voice	E	114.805	B:min
8c#	_	.	.	.	.	.	.	.	.
4.B	_	.	.	.	.	.	.	.	.
=92	=92	=92	=92	=92	=92	=92	=92	=92	=92
2r	.	1r	.	2Bm	.	voice	.	116.063	B:min
8c#	And	.	.	2Bm	.	voice	.	116.691	B:min/b7
4d	I	.	.	.	.	.	.	.	.
[8e	do	.	.	.	.	.	.	.	.
=93	=93	=93	=93	=93	=93	=93	=93	=93	=93
4e]	_	1r	.	1GM	newline	voice	.	117.32	G:maj
4e	a-	.	.	.	.	.	.	.	.
4e	-pre-	.	.	.	.	.	(D	.	.
8e	-ci-	.	.	.	.	.	d)	.	.
8e	-ate	.	.	.	.	.	.	.	.
=94	=94	=94	=94	=94	=94	=94	=94	=94	=94
4d	_	1r	.	1GM	.	voice	.	118.58	G:maj
4d	you	.	.	.	.	.	.	.	.
8c#	be-	.	.	.	.	.	(D	.	.
4.B	-in'	.	.	.	.	.	d)	.	.
=95	=95	=95	=95	=95	=95	=95	=95	=95	=95
2d	round	1r	.	1GM	.	voice	E	119.841	G:maj
8c#	_	.	.	.	.	.	.	.	.
4.B	_	.	.	.	.	.	.	.	.
=96	=96	=96	=96	=96	=96	=96	=96	=96	=96
1r	.	1r	.	2GM	.	voice	.	121.101	G:maj
.	.	.	.	2GM	.	voice	.	121.732	G:maj/7
=97	=97	=97	=97	=97	=97	=97	=97	=97	=97
4e	Help	4b	Help	1EM	newline	voice	.	122.362	E:maj
8e	me	8b	me	.	.	.	D	.	.
4e	get	4b	get	.	.	.	.	.	.
4e	my	4b	my	.	.	.	.	.	.
8e	feet	[8b	feet	.	.	.	D	.	.
=98	=98	=98	=98	=98	=98	=98	=98	=98	=98
4d	_	4b]	_	1EM	.	voice	.	123.63	E:maj
4d	back	4a	back	.	.	.	.	.	.
4c#	on	4g#	on	.	.	.	.	.	.
4B	the	4f#	the	.	.	.	.	.	.
=99	=99	=99	=99	=99	=99	=99	=99	=99	=99
2d	ground	2a	ground	1EM	.	voice	E	124.898	E:maj
8c#	_	8g#	_	.	.	.	.	.	.
4.B	_	4.f#	_	.	.	.	.	.	.
=100	=100	=100	=100	=100	=100	=100	=100	=100	=100
2r	.	2r	.	1EM	.	voice	.	126.166	E:maj
4e	Won't	4e	Won't	.	.	.	.	.	.
4e	you	4e	you	.	.	.	.	.	.
=101	=101	=101	=101	=101	=101	=101	=101	=101	=101
1cc#	please	1a	please	1AMm	newline	voice	D	127.434	A:7
=102	=102	=102	=102	=102	=102	=102	=102	=102	=102
8b	please	8e	please	1AMm	.	voice	D	128.71	A:7
4.a	_	4.d	_	.	.	.	.	.	.
8e	help	8c#	help	.	.	.	.	.	.
4.d	_	4.B	_	.	.	.	.	.	.
=103	=103	=103	=103	=103	=103	=103	=103	=103	=103
4A	me?	4c#	me?	1F#m	.	voice	D	129.986	F#:min
4r	.	4r	.	.	.	.	.	.	.
2r	.	4f#	Help!	.	.	.	.	.	.
.	.	4r	.	.	.	.	.	.	.
=104	=104	=104	=104	=104	=104	=104	=104	=104	=104
4f#	Me	2r	.	1F#m	.	voice	D	131.262	F#:min
4r	.	.	.	.	.	.	.	.	.
2r	.	4f#	Help!	.	.	.	.	.	.
.	.	4r	.	.	.	.	.	.	.
=105	=105	=105	=105	=105	=105	=105	=105	=105	=105
4.e	Me	4.a	Me	1AM	newline	voice	D	132.538	A:maj6
8d	_	8f#	_	.	.	.	.	.	.
2c#	_	2e	_	.	.	.	.	.	.
=106	=106	=106	=106	=106	=106	=106	=106	=106	=106
1c#	Ooh	1f#	ooh	1AM	.	voice	.	133.798	A:maj6
r;	.	r;	.	1r;	.	r	.	136.948	N.C.
r;	.	r;	.	1r;	.	r	.	139.618	N.C.
*-	*-	*-	*-	*-	*-	*-	*-	*-	*-
!!!BillboardChartDate: 1965/10/30
!!!BillboardPeak: 1
!!!BillboardWeeksOnChart: 13
!!!COC: The Beatles
!!!ENC: Nathaniel Condit-Schultz
!!!EST: Awating manual error checking and editing.
!!!OTL: Help!
!!!RDF**chordsym: original McGill chord annotation + (implied pitch class set, with bass pitch in first position)
!!!RDF**harmony: **recip + pitch class of root + harmonic quality
!!!RDF**leadinstrument: original McGill primary instrumentation annotation
!!!RDF**phrase: newline = linebreak in original McGill transcription
!!!RDF**timestamp: McGill audio timestamp in seconds
!!!RDT: 2017/01/12/
!!!SampleActualRank: 32
!!!SampleID#: 1244
!!!SampleTargetRank: 33
